web/ui/src/components/theme/button/svgs/download.svg

<svg height="16" viewBox="0 0 16 16" width="16" xmlns="http://www.w3.org/2000/svg"><g fill="none"><path d="m0 0h16v16h-16z" fill="#000" opacity="0"/><path d="m11.7333333 5.28928155c1.8041301.00000002 3.2666667 1.4625365 3.2666667 3.26666666 0 1.80413019-1.4625366 3.26666669-3.2666667 3.26666669h-.4666667c-.2577329 0-.4666666-.2089338-.4666666-.4666667s.2089337-.4666667.4666666-.4666667h.4666667c1.2886644 0 2.3333333-1.04466887 2.3333333-2.33333329 0-1.28866441-1.0446689-2.33333333-2.3333333-2.33333333-.1362113-.00046467-.2721576.01203615-.406.03733333-.1275249.02566089-.2599729-.00306971-.3654036-.0792633-.1054306-.07619358-.1742746-.19293444-.1899297-.32207003-.1966199-1.37986329-1.37819875-2.40501139-2.772-2.40501139-1.39380135 0-2.57538018 1.0251481-2.77200005 2.40501139-.01565519.12913559-.08449912.24587645-.18992978.32207003-.10543066.07619359-.23787863.10492419-.36540355.0792633-.13384238-.02529718-.26978871-.037798-.406-.03733333-1.28866442 0-2.33333334 1.04466892-2.33333334 2.33333333 0 1.28866442 1.04466892 2.33333329 2.33333334 2.33333329h.46666666c.25773289 0 .46666667.2089338.46666667.4666667s-.20893378.4666667-.46666667.4666667h-.46666666c-1.80413017 0-3.26666662-1.4625365-3.26666662-3.26666669 0-1.80413016 1.46253645-3.26666664 3.26666662-3.26666666h.12133333c.42944363-1.64307765 1.91372853-2.78928155 3.61200005-2.78928155 1.69827142 0 3.1825563 1.1462039 3.612 2.78928155zm-4.20000002 3.73333333c0-.25773288.20893379-.46666667.46666667-.46666667s.46666667.20893379.46666667.46666667v4.20000002c0 .2577329-.20893379.4666666-.46666667.4666666s-.46666667-.2089337-.46666667-.4666666zm1.75 2.02533332c.17305735-.1801725.45731016-.1921016.64485484-.0270623s.21185278.448502.05514516.6430623l-1.63333333 1.8666667c-.08858875.1004502-.21606639.1579957-.35.1579957-.1339336 0-.26141125-.0575455-.35-.1579957l-1.63333333-1.8666667c-.11885732-.1237441-.16022341-.302731-.10771673-.4660794.05250669-.1633485.1904164-.284709.35911498-.3160212.16869857-.0313122.34097359.0324749.44860175.1661006l1.28333333 1.4653333z" fill="#595959"/></g></svg>

<?xml version="1.0" encoding="UTF-8"?>
<svg width="16px" height="16px" viewBox="0 0 16 16" version="1.1" xmlns="http://www.w3.org/2000/svg" xmlns:xlink="http://www.w3.org/1999/xlink">
    <title>download</title>
    <g id="页面-1" stroke="none" stroke-width="1" fill="none" fill-rule="evenodd">
        <g id="系统设计规范" transform="translate(-576.000000, -5253.000000)" fill-rule="nonzero">
            <g id="download" transform="translate(576.000000, 5253.000000)">
                <rect id="矩形" fill="#000000" opacity="0" x="0" y="0" width="16" height="16"></rect>
                <path d="M11.7333333,5.28928155 C13.5374634,5.28928157 15,6.75181805 15,8.55594821 C15,10.3600784 13.5374634,11.8226149 11.7333333,11.8226149 L11.2666666,11.8226149 C11.0089337,11.8226149 10.8,11.6136811 10.8,11.3559482 C10.8,11.0982153 11.0089337,10.8892815 11.2666666,10.8892815 L11.7333333,10.8892815 C13.0219977,10.8892815 14.0666666,9.84461263 14.0666666,8.55594821 C14.0666666,7.2672838 13.0219977,6.22261488 11.7333333,6.22261488 C11.597122,6.22215021 11.4611757,6.23465103 11.3273333,6.25994821 C11.1998084,6.2856091 11.0673604,6.2568785 10.9619297,6.18068491 C10.8564991,6.10449133 10.7876551,5.98775047 10.772,5.85861488 C10.5753801,4.47875159 9.39380125,3.45360349 8,3.45360349 C6.60619865,3.45360349 5.42461982,4.47875159 5.22799995,5.85861488 C5.21234476,5.98775047 5.14350083,6.10449133 5.03807017,6.18068491 C4.93263951,6.2568785 4.80019154,6.2856091 4.67266662,6.25994821 C4.53882424,6.23465103 4.40287791,6.22215021 4.26666662,6.22261488 C2.9780022,6.22261488 1.93333328,7.2672838 1.93333328,8.55594821 C1.93333328,9.84461263 2.9780022,10.8892815 4.26666662,10.8892815 L4.73333328,10.8892815 C4.99106617,10.8892815 5.19999995,11.0982153 5.19999995,11.3559482 C5.19999995,11.6136811 4.99106617,11.8226149 4.73333328,11.8226149 L4.26666662,11.8226149 C2.46253645,11.8226149 1,10.3600784 1,8.55594821 C1,6.75181805 2.46253645,5.28928157 4.26666662,5.28928155 L4.38799995,5.28928155 C4.81744358,3.6462039 6.30172848,2.5 8,2.5 C9.69827142,2.5 11.1825563,3.6462039 11.612,5.28928155 L11.7333333,5.28928155 Z M7.53333328,9.02261488 C7.53333328,8.764882 7.74226707,8.55594821 7.99999995,8.55594821 C8.25773283,8.55594821 8.46666662,8.764882 8.46666662,9.02261488 L8.46666662,13.2226149 C8.46666662,13.4803478 8.25773283,13.6892815 7.99999995,13.6892815 C7.74226707,13.6892815 7.53333328,13.4803478 7.53333328,13.2226149 L7.53333328,9.02261488 Z M9.28333328,11.0479482 C9.45639063,10.8677757 9.74064344,10.8558466 9.92818812,11.0208859 C10.1157328,11.1859252 10.1400409,11.4693879 9.98333328,11.6639482 L8.34999995,13.5306149 C8.2614112,13.6310651 8.13393356,13.6886106 7.99999995,13.6886106 C7.86606635,13.6886106 7.7385887,13.6310651 7.64999995,13.5306149 L6.01666662,11.6639482 C5.8978093,11.5402041 5.85644321,11.3612172 5.90894989,11.1978688 C5.96145658,11.0345203 6.09936629,10.9131598 6.26806487,10.8818476 C6.43676344,10.8505354 6.60903846,10.9143225 6.71666662,11.0479482 L7.99999995,12.5132815 L9.28333328,11.0479482 Z" id="形状" fill="#595959"></path>
            </g>
        </g>
    </g>
</svg>
